;Generated with Cura_SteamEngine 15.01
;-- START GCODE --
N0 M800        ; Custom GCODE to fire start print procedure
;-- end of START GCODE --
;Layer count: 304
;LAYER:-2
;RAFT
N1 G0 F12000 X73.207 Y65.785 Z0.300
;TYPE:SUPPORT
G92 E0.0
N2 G1 F2040 X77.530 Y63.624 E0.42196
G1 X78.609 Y62.546 E0.55513
G1 X82.008 Y62.346 E0.85240
G1 X82.546 Y61.809 E0.91877
G1 X87.568 Y61.809 E1.35723
G1 X88.024 Y62.265 E1.41353
G1 X88.847 Y62.356 E1.48582
G1 X90.984 Y63.425 E1.69444
G1 X91.185 Y63.625 E1.71920
G1 X91.584 Y63.825 E1.75816
G1 X94.307 Y66.548 E2.09438
G1 X94.307 Y68.209 E2.23940
G1 X96.107 Y68.209 E2.39655
G1 X96.107 Y76.670 E3.13526
G1 X95.307 Y77.470 E3.23404
G1 X95.307 Y80.270 E3.47850
G1 X94.507 Y81.070 E3.57728
G1 X94.507 Y82.070 E3.66459
G1 X94.307 Y82.270 E3.68928
G1 X94.307 Y84.760 E3.90668
G1 X93.507 Y84.960 E3.97867
G1 X93.507 Y86.609 E4.12264
G1 X87.952 Y86.609 E4.60764
G1 X86.328 Y87.421 E4.76616
G1 X83.788 Y87.784 E4.99018
G1 X80.185 Y88.009 E5.30536
G1 X76.946 Y88.009 E5.58815
G1 X75.729 Y86.792 E5.73842
G1 X74.930 Y86.393 E5.81639
G1 X74.529 Y85.993 E5.86584
G1 X74.130 Y85.793 E5.90481
G1 X73.930 Y85.593 E5.92950
G1 X71.207 Y84.234 E6.19521
G1 X71.207 Y82.870 E6.31429
G1 X70.807 Y82.470 E6.36368
G1 X70.807 Y82.270 E6.38114
G1 X70.207 Y81.670 E6.45523
G1 X70.207 Y80.670 E6.54253
G1 X70.007 Y80.470 E6.56723
G1 X70.007 Y80.270 E6.58469
G1 X69.807 Y80.070 E6.60938
G1 X69.807 Y74.148 E7.12642
G1 X70.007 Y73.948 E7.15112
G1 X70.007 Y72.748 E7.25589
G1 X70.207 Y72.548 E7.28058
G1 X70.207 Y71.548 E7.36789
G1 X71.207 Y70.548 E7.49136
G1 X71.207 Y70.348 E7.50882
G1 X71.407 Y70.148 E7.53352
G1 X71.407 Y69.748 E7.56844
G1 X71.607 Y69.548 E7.59313
G1 X71.607 Y67.784 E7.74714
G1 X73.207 Y66.985 E7.90329
G1 X73.207 Y65.785 E8.00806
G0 F12000 X97.352 Y80.215
G1 F2040 X102.807 Y78.400 E8.50999
G1 X102.807 Y76.009 E8.71874
G1 X109.952 Y76.009 E9.34256
G1 X113.932 Y77.998 E9.73102
G1 X116.507 Y78.366 E9.95812
G1 X116.507 Y82.348 E10.30578
G1 X116.707 Y82.548 E10.33048
G1 X116.707 Y84.148 E10.47017
G1 X116.907 Y84.348 E10.49486
G1 X116.907 Y86.489 E10.68179
G1 X117.407 Y89.584 E10.95551
G1 X116.907 Y89.751 E11.00153
G1 X116.907 Y90.433 E11.06108
G1 X116.507 Y90.633 E11.10012
G1 X116.507 Y92.070 E11.22559
G1 X115.368 Y93.209 E11.36622
G1 X115.986 Y93.826 E11.44246
G1 X117.184 Y94.425 E11.55940
G1 X117.826 Y95.067 E11.63867
G1 X120.307 Y95.480 E11.85826
G1 X120.307 Y102.870 E12.50347
G1 X117.784 Y105.393 E12.81499
G1 X116.907 Y105.832 E12.90062
G1 X116.907 Y108.209 E13.10815
G1 X118.752 Y108.209 E13.26923
G1 X121.184 Y109.425 E13.50662
G1 X122.568 Y110.809 E13.67751
G1 X125.307 Y110.809 E13.91665
G1 X125.307 Y113.748 E14.17324
G1 X126.468 Y114.909 E14.31660
G1 X125.507 Y115.870 E14.43525
G1 X125.507 Y123.409 E15.09347
G1 X124.707 Y123.409 E15.16331
G1 X124.707 Y123.809 E15.19823
G1 X119.107 Y123.809 E15.68716
G1 X119.107 Y125.009 E15.79193
G1 X111.507 Y125.009 E16.45547
G1 X111.507 Y126.009 E16.54278
G1 X101.101 Y126.009 E17.45130
G1 X101.018 Y125.809 E17.47021
G1 X98.407 Y125.809 E17.69817
G1 X98.407 Y113.007 E18.81588
G1 X100.259 Y112.872 E18.97801
G1 X100.700 Y111.809 E19.07848
G1 X101.207 Y111.809 E19.12275
G1 X101.207 Y102.809 E19.90852
G1 X94.407 Y102.809 E20.50221
G1 X94.407 Y100.942 E20.66522
G1 X93.607 Y100.782 E20.73645
G1 X93.607 Y97.870 E20.99069
G1 X93.407 Y97.670 E21.01538
G1 X93.407 Y97.470 E21.03284
G1 X93.207 Y97.270 E21.05754
G1 X93.207 Y95.870 E21.17977
G1 X92.383 Y95.046 E21.28151
G1 X93.207 Y93.057 E21.46948
G1 X93.207 Y89.875 E21.74729
G1 X94.623 Y89.641 E21.87259
G1 X95.299 Y88.009 E22.02682
G1 X102.007 Y88.009 E22.61248
G1 X102.007 Y84.871 E22.88645
G1 X97.352 Y80.215 E23.46128
G0 F12000 X134.807 Y79.634
G1 F2040 X134.807 Y72.148 E24.11486
G1 X135.007 Y71.948 E24.13956
G1 X135.007 Y71.748 E24.15702
G1 X135.207 Y71.548 E24.18172
G1 X135.207 Y70.186 E24.30063
G1 X135.407 Y70.086 E24.32015
G1 X135.407 Y67.434 E24.55169
G1 X137.407 Y67.035 E24.72975
G1 X137.407 Y65.064 E24.90183
G1 X139.999 Y64.848 E25.12892
G1 X146.235 Y63.809 E25.68088
G1 X149.368 Y63.809 E25.95441
G1 X150.194 Y64.635 E26.05640
G1 X155.307 Y65.366 E26.50734
G1 X155.307 Y68.348 E26.76769
G1 X155.768 Y68.809 E26.82462
G1 X156.168 Y68.809 E26.85954
G1 X157.968 Y70.609 E27.08179
G1 X160.107 Y70.609 E27.26854
G1 X160.107 Y72.058 E27.39505
G1 X160.907 Y72.258 E27.46704
G1 X160.907 Y80.070 E28.14909
G1 X160.707 Y80.270 E28.17379
G1 X160.707 Y80.470 E28.19125
G1 X160.507 Y80.670 E28.21594
G1 X160.507 Y80.870 E28.23341
G1 X160.107 Y81.270 E28.28279
G1 X160.107 Y81.670 E28.31772
G1 X159.907 Y81.870 E28.34241
G1 X159.907 Y82.270 E28.37733
G1 X159.707 Y82.470 E28.40203
G1 X159.707 Y83.470 E28.48934
G1 X155.968 Y87.209 E28.95100
G1 X155.369 Y87.209 E29.00330
G1 X154.168 Y88.409 E29.15152
G1 X149.743 Y88.409 E29.53786
G1 X145.497 Y87.560 E29.91591
G1 X144.729 Y86.792 E30.01074
G1 X144.330 Y86.593 E30.04966
G1 X144.131 Y86.394 E30.07423
G1 X140.207 Y84.433 E30.45723
G1 X140.207 Y83.859 E30.50734
G1 X135.807 Y82.761 E30.90328
G1 X135.807 Y80.133 E31.13272
G1 X134.807 Y79.634 E31.23030
G0 F12000 X143.435 Y112.409
G1 F2040 X145.233 Y112.409 E31.38728
G1 X145.608 Y112.347 E31.42046
G1 X146.346 Y111.609 E31.51158
G1 X152.168 Y111.609 E32.01989
G1 X152.368 Y111.809 E32.04459
G1 X153.568 Y111.809 E32.14936
G1 X154.399 Y112.639 E32.25190
G1 X154.623 Y112.664 E32.27158
G1 X155.585 Y113.626 E32.39036
G1 X155.984 Y113.825 E32.42929
G1 X159.667 Y117.507 E32.88397
G1 X159.611 Y117.652 E32.89754
G1 X160.107 Y118.148 E32.95878
G1 X160.107 Y126.670 E33.70282
G1 X159.907 Y126.870 E33.72752
G1 X159.907 Y127.070 E33.74498
G1 X159.107 Y127.870 E33.84375
G1 X159.107 Y128.270 E33.87868
G1 X158.907 Y128.470 E33.90337
G1 X158.907 Y128.870 E33.93830
G1 X156.184 Y131.593 E34.27451
G1 X154.984 Y132.193 E34.39165
G1 X153.784 Y133.393 E34.53981
G1 X153.386 Y133.592 E34.57866
G1 X150.910 Y136.067 E34.88432
G1 X150.697 Y136.080 E34.90295
G1 X150.168 Y136.609 E34.96826
G1 X138.807 Y136.609 E35.96017
G1 X138.807 Y135.218 E36.08161
G1 X136.407 Y134.420 E36.30243
G1 X136.407 Y132.632 E36.45854
G1 X135.207 Y132.032 E36.57567
G1 X135.207 Y129.470 E36.79936
G1 X134.607 Y128.870 E36.87344
G1 X134.607 Y128.033 E36.94652
G1 X133.807 Y127.634 E37.02457
G1 X133.807 Y120.348 E37.66069
G1 X134.007 Y120.148 E37.68539
G1 X134.007 Y118.948 E37.79016
G1 X134.207 Y118.748 E37.81485
G1 X134.207 Y118.548 E37.83231
G1 X134.407 Y118.348 E37.85701
G1 X134.407 Y118.148 E37.87447
G1 X135.007 Y117.548 E37.94855
G1 X135.007 Y117.348 E37.96601
G1 X137.007 Y115.348 E38.21296
G1 X137.007 Y113.480 E38.37605
G1 X143.435 Y112.409 E38.94500
G0 F12000 X95.707 Y118.948
G1 F2040 X95.707 Y124.870 E39.46204
G1 X95.507 Y125.070 E39.48673
G1 X95.507 Y125.470 E39.52166
G1 X95.307 Y125.670 E39.54635
G1 X95.307 Y130.070 E39.93050
G1 X94.307 Y131.070 E40.05398
G1 X94.307 Y132.270 E40.15875
G1 X91.184 Y135.393 E40.54435
G1 X90.786 Y135.592 E40.58320
G1 X88.968 Y137.409 E40.80761
G1 X82.902 Y137.409 E41.33722
G1 X80.809 Y137.110 E41.52181
G1 X77.393 Y136.256 E41.82923
G1 X77.146 Y136.009 E41.85973
G1 X72.607 Y136.009 E42.25602
G1 X72.607 Y132.470 E42.56500
G1 X72.407 Y132.270 E42.58970
G1 X72.407 Y131.670 E42.64208
G1 X71.607 Y130.870 E42.74086
G1 X71.607 Y130.670 E42.75832
G1 X71.207 Y130.270 E42.80771
G1 X71.207 Y130.070 E42.82517
G1 X70.807 Y129.670 E42.87456
G1 X70.807 Y129.070 E42.92694
G1 X70.607 Y128.870 E42.95164
G1 X70.607 Y128.470 E42.98656
G1 X69.607 Y127.470 E43.11003
G1 X69.607 Y126.670 E43.17988
G1 X69.407 Y126.470 E43.20457
G1 X69.407 Y126.070 E43.23950
G1 X69.207 Y125.870 E43.26419
G1 X69.207 Y125.470 E43.29911
G1 X69.007 Y125.270 E43.32381
G1 X69.007 Y119.348 E43.84085
G1 X69.207 Y119.148 E43.86554
G1 X69.207 Y118.148 E43.95285
G1 X70.007 Y117.348 E44.05163
G1 X70.007 Y114.399 E44.30910
G1 X72.007 Y113.733 E44.49314
G1 X72.007 Y111.822 E44.65998
G1 X80.455 Y111.500 E45.39810
G1 X81.546 Y110.409 E45.53280
G1 X83.146 Y110.409 E45.67250
G1 X83.346 Y110.209 E45.69719
G1 X91.507 Y110.209 E46.40971
G1 X91.507 Y112.285 E46.59096
G1 X93.307 Y113.184 E46.76663
G1 X93.307 Y115.386 E46.95888
G1 X94.861 Y116.163 E47.11057
G1 X94.602 Y117.443 E47.22459
G1 X95.307 Y118.148 E47.31164
G1 X95.307 Y118.348 E47.32910
G1 X95.507 Y118.548 E47.35379
G1 X95.507 Y118.748 E47.37125
G1 X95.707 Y118.948 E47.39595
G0 F12000 X95.500 Y118.443
G1 F2040 X95.500 Y125.576 E48.01872
G0 F12000 X98.500 Y125.879
G1 F2040 X98.500 Y112.930 E49.14926
G0 F12000 X99.500 Y112.856
G1 F2040 X99.500 Y125.879 E50.28627
G0 F12000 X94.500 Y130.976
G1 F2040 X94.500 Y115.905 E51.60209
G0 F12000 X93.500 Y115.405
G1 F2040 X93.500 Y133.176 E53.15364
G0 F12000 X92.500 Y134.176
G1 F2040 X92.500 Y112.703 E55.02840
G0 F12000 X91.500 Y110.139
G1 F2040 X91.500 Y135.176 E57.21433
G0 F12000 X90.500 Y135.977
G1 F2040 X90.500 Y110.139 E59.47019
G0 F12000 X89.500 Y110.139
G1 F2040 X89.500 Y136.977 E61.81336
G0 F12000 X88.500 Y137.479
G1 F2040 X88.500 Y110.139 E64.20035
G0 F12000 X87.500 Y110.139
G1 F2040 X87.500 Y137.479 E66.58735
G0 F12000 X86.500 Y137.479
G1 F2040 X86.500 Y110.139 E68.97435
G0 F12000 X85.500 Y110.139
G1 F2040 X85.500 Y137.479 E71.36134
G0 F12000 X84.500 Y137.479
G1 F2040 X84.500 Y110.139 E73.74834
G0 F12000 X83.500 Y110.139
G1 F2040 X83.500 Y137.479 E76.13534
G0 F12000 X82.500 Y137.422
G1 F2040 X82.500 Y110.339 E78.49990
G0 F12000 X81.500 Y110.356
G1 F2040 X81.500 Y137.279 E80.85048
G0 F12000 X80.500 Y137.104
G1 F2040 X80.500 Y111.356 E83.09849
G0 F12000 X94.500 Y102.879
G1 F2040 X94.500 Y89.590 E84.25872
G0 F12000 X93.500 Y89.755
G1 F2040 X93.500 Y97.861 E84.96644
G0 F12000 X92.500 Y95.261
G1 F2040 X92.500 Y94.579 E85.02598
G0 F12000 X95.500 Y87.939
G1 F2040 X95.500 Y102.879 E86.33036
G0 F12000 X96.500 Y102.879
G1 F2040 X96.500 Y87.939 E87.63474
G0 F12000 X97.500 Y87.939
G1 F2040 X97.500 Y102.879 E88.93912
G0 F12000 X98.500 Y102.879
G1 F2040 X98.500 Y87.939 E90.24350
G0 F12000 X99.500 Y87.939
G1 F2040 X99.500 Y102.879 E91.54788
G0 F12000 X100.500 Y102.879
G1 F2040 X100.500 Y87.939 E92.85226
G0 F12000 X101.500 Y87.939
G1 F2040 X101.500 Y126.079 E96.18218
G0 F12000 X102.500 Y126.079
G1 F2040 X102.500 Y78.428 E100.34249
G0 F12000 X101.500 Y78.761
G1 F2040 X101.500 Y84.462 E100.84023
G0 F12000 X100.500 Y83.462
G1 F2040 X100.500 Y79.093 E101.22168
G0 F12000 X103.500 Y75.939
G1 F2040 X103.500 Y126.079 E105.59929
G0 F12000 X104.500 Y126.079
G1 F2040 X104.500 Y75.939 E109.97691
G0 F12000 X105.500 Y75.939
G1 F2040 X105.500 Y126.079 E114.35452
G0 F12000 X106.500 Y126.079
G1 F2040 X106.500 Y75.939 E118.73214
G0 F12000 X107.500 Y75.939
G1 F2040 X107.500 Y126.079 E123.10976
G0 F12000 X108.500 Y126.079
G1 F2040 X108.500 Y75.939 E127.48737
G0 F12000 X109.500 Y75.939
G1 F2040 X109.500 Y126.079 E131.86499
G0 F12000 X110.500 Y126.079
G1 F2040 X110.500 Y76.205 E136.21938
G0 F12000 X111.500 Y76.705
G1 F2040 X111.500 Y126.079 E140.53012
G0 F12000 X112.500 Y125.079
G1 F2040 X112.500 Y77.204 E144.70998
G0 F12000 X113.500 Y77.704
G1 F2040 X113.500 Y125.079 E148.84619
G0 F12000 X114.500 Y125.079
G1 F2040 X114.500 Y78.009 E152.95577
G0 F12000 X115.500 Y78.152
G1 F2040 X115.500 Y93.176 E154.26748
G0 F12000 X115.500 Y93.241
G1 F2040 X115.500 Y125.079 E157.04719
G0 F12000 X116.500 Y125.079
G1 F2040 X116.500 Y94.005 E159.76020
G0 F12000 X117.500 Y94.643
G1 F2040 X117.500 Y105.614 E160.71805
G0 F12000 X118.500 Y104.776
G1 F2040 X118.500 Y95.109 E161.56206
G0 F12000 X119.500 Y95.276
G1 F2040 X119.500 Y103.776 E162.30417
G0 F12000 X118.500 Y108.139
G1 F2040 X118.500 Y125.079 E163.78317
G0 F12000 X117.500 Y125.079
G1 F2040 X117.500 Y108.139 E165.26216
G0 F12000 X119.500 Y108.505
G1 F2040 X119.500 Y123.879 E166.60443
G0 F12000 X100.500 Y125.879
G1 F2040 X100.500 Y112.108 E167.80675
G0 F12000 X120.500 Y109.005
G1 F2040 X120.500 Y123.879 E169.10537
G0 F12000 X121.500 Y123.879
G1 F2040 X121.500 Y109.643 E170.34828
G0 F12000 X122.500 Y110.643
G1 F2040 X122.500 Y123.879 E171.50389
G0 F12000 X123.500 Y123.879
G1 F2040 X123.500 Y110.739 E172.65111
G0 F12000 X124.500 Y110.739
G1 F2040 X124.500 Y123.879 E173.79834
G0 F12000 X125.500 Y123.479
G1 F2040 X125.500 Y113.843 E174.63964
G0 F12000 X134.500 Y117.956
G1 F2040 X134.500 Y128.058 E175.52162
G0 F12000 X135.500 Y132.256
G1 F2040 X135.500 Y116.756 E176.87489
G0 F12000 X136.500 Y115.756
G1 F2040 X136.500 Y134.524 E178.51349
G0 F12000 X137.500 Y134.856
G1 F2040 X137.500 Y113.327 E180.39314
G0 F12000 X138.500 Y113.160
G1 F2040 X138.500 Y135.189 E182.31644
G0 F12000 X139.500 Y136.679
G1 F2040 X139.500 Y112.993 E184.38442
G0 F12000 X140.500 Y112.827
G1 F2040 X140.500 Y136.679 E186.46688
G0 F12000 X141.500 Y136.679
G1 F2040 X141.500 Y112.660 E188.56393
G0 F12000 X142.500 Y112.493
G1 F2040 X142.500 Y136.679 E190.67556
G0 F12000 X143.500 Y136.679
G1 F2040 X143.500 Y112.339 E192.80063
G0 F12000 X144.500 Y112.339
G1 F2040 X144.500 Y136.679 E194.92571
G0 F12000 X145.500 Y136.679
G1 F2040 X145.500 Y112.294 E197.05471
G0 F12000 X146.500 Y111.539
G1 F2040 X146.500 Y136.679 E199.24963
G0 F12000 X147.500 Y136.679
G1 F2040 X147.500 Y111.539 E201.44455
G0 F12000 X148.500 Y111.539
G1 F2040 X148.500 Y136.679 E203.63947
G0 F12000 X149.500 Y136.679
G1 F2040 X149.500 Y111.539 E205.83438
G0 F12000 X150.500 Y111.539
G1 F2040 X150.500 Y136.376 E208.00285
G0 F12000 X151.500 Y135.577
G1 F2040 X151.500 Y111.539 E210.10156
G0 F12000 X152.500 Y111.739
G1 F2040 X152.500 Y134.577 E212.09549
G0 F12000 X153.500 Y133.614
G1 F2040 X153.500 Y111.739 E214.00535
G0 F12000 X154.500 Y112.580
G1 F2040 X154.500 Y132.776 E215.76862
G0 F12000 X155.500 Y132.014
G1 F2040 X155.500 Y113.443 E217.39002
G0 F12000 X156.500 Y114.242
G1 F2040 X156.500 Y131.376 E218.88595
G0 F12000 X157.500 Y130.376
G1 F2040 X157.500 Y115.242 E220.20727
G0 F12000 X158.500 Y116.242
G1 F2040 X158.500 Y129.376 E221.35397
G0 F12000 X159.500 Y127.576
G1 F2040 X159.500 Y117.242 E222.25621
G0 F12000 X153.500 Y88.479
G1 F2040 X153.500 Y65.037 E224.30288
G0 F12000 X152.500 Y64.894
G1 F2040 X152.500 Y88.479 E226.36203
G0 F12000 X151.500 Y88.479
G1 F2040 X151.500 Y64.752 E228.43359
G0 F12000 X150.500 Y64.609
G1 F2040 X150.500 Y88.479 E230.51763
G0 F12000 X149.500 Y88.431
G1 F2040 X149.500 Y63.843 E232.66435
G0 F12000 X148.500 Y63.739
G1 F2040 X148.500 Y88.231 E234.80269
G0 F12000 X147.500 Y88.031
G1 F2040 X147.500 Y63.739 E236.92358
G0 F12000 X146.500 Y63.739
G1 F2040 X146.500 Y87.831 E239.02700
G0 F12000 X145.500 Y87.631
G1 F2040 X145.500 Y63.860 E241.10239
G0 F12000 X144.500 Y64.027
G1 F2040 X144.500 Y86.756 E243.08681
G0 F12000 X143.500 Y86.157
G1 F2040 X143.500 Y64.193 E245.00444
G0 F12000 X142.500 Y64.360
G1 F2040 X142.500 Y85.657 E246.86384
G0 F12000 X141.500 Y85.157
G1 F2040 X141.500 Y64.526 E248.66509
G0 F12000 X140.500 Y64.693
G1 F2040 X140.500 Y84.657 E250.40810
G0 F12000 X154.500 Y88.177
G1 F2040 X154.500 Y65.180 E252.41592
G0 F12000 X155.500 Y68.443
G1 F2040 X155.500 Y87.279 E254.06045
G0 F12000 X156.500 Y86.776
G1 F2040 X156.500 Y69.043 E255.60868
G0 F12000 X157.500 Y70.043
G1 F2040 X157.500 Y85.776 E256.98229
G0 F12000 X158.500 Y84.776
G1 F2040 X158.500 Y70.539 E258.22530
G0 F12000 X159.500 Y70.539
G1 F2040 X159.500 Y83.776 E259.38099
G0 F12000 X160.500 Y80.976
G1 F2040 X160.500 Y72.084 E260.15733
G0 F12000 X139.500 Y64.819
G1 F2040 X139.500 Y83.755 E261.81059
G0 F12000 X138.500 Y83.505
G1 F2040 X138.500 Y64.902 E263.43478
G0 F12000 X137.500 Y64.986
G1 F2040 X137.500 Y83.255 E265.02981
G0 F12000 X136.500 Y83.006
G1 F2040 X136.500 Y67.144 E266.41469
G0 F12000 X135.500 Y67.344
G1 F2040 X135.500 Y80.058 E267.52472
G0 F12000 X116.500 Y78.295
G1 F2040 X116.500 Y92.176 E268.73664
G0 F12000 X99.500 Y82.462
G1 F2040 X99.500 Y79.426 E269.00170
G0 F12000 X98.500 Y79.759
G1 F2040 X98.500 Y81.462 E269.15039
G0 F12000 X97.500 Y80.462
G1 F2040 X97.500 Y80.091 E269.18278
G0 F12000 X94.500 Y82.176
G1 F2040 X94.500 Y68.139 E270.40832
G0 F12000 X95.500 Y68.139
G1 F2040 X95.500 Y77.376 E271.21478
G0 F12000 X93.500 Y86.679
G1 F2040 X93.500 Y65.642 E273.05148
G0 F12000 X92.500 Y64.642
G1 F2040 X92.500 Y86.679 E274.97548
G0 F12000 X91.500 Y86.679
G1 F2040 X91.500 Y63.705 E276.98129
G0 F12000 X90.500 Y63.105
